assets/img/braze_icons/log-in-02-alt.svg

<svg fill="none" height="24" viewBox="0 0 24 24" width="24" xmlns="http://www.w3.org/2000/svg"><g fill="#801ed7"><path d="m7.9647 2.13627c.51165-.1371 1.10231-.13678 1.89769-.13634l6.37891.00004c.8049-.00001 1.4693-.00002 2.0105.0442.5621.04592 1.0788.14449 1.5641.39178.7527.38349 1.3646.99541 1.7481 1.74806.2473.48534.3459 1.00204.3918 1.56414.0442.54119.0442 1.20554.0442 2.0105v8.48265c0 .805 0 1.4693-.0442 2.0105-.0459.5621-.1445 1.0788-.3918 1.5641-.3835.7527-.9954 1.3646-1.7481 1.7481-.4853.2473-1.002.3459-1.5641.3918-.5412.0442-1.2055.0442-2.0105.0442h-6.3789c-.79539.0005-1.38605.0008-1.8977-.1363-1.38037-.3699-2.45856-1.4481-2.82843-2.8284-.1371-.5117-.13678-1.1024-.13634-1.8977v-.5376c0-.5601 0-.8401.10899-1.054.09587-.1882.24885-.3411.43701-.437.21392-.109.49394-.109 1.054-.109h1.44047c.37062 0 .55592 0 .66086.052.11549.0573.15599.0963.21745.2096.05584.103.06501.3518.08334.8495.02689.7303.3191 1.4527.87663 2.0102 1.17162 1.1716 3.07102 1.1716 4.24262 0l4-4c.2877-.2876.5047-.6191.6511-.9729.145-.3498.2258-.7328.2276-1.1346v-.0138-.0098c-.0025-.7645-.2954-1.5282-.8787-2.11152l-4-4c-1.1716-1.17157-3.071-1.17157-4.24262 0-.55753.55752-.84974 1.2799-.87663 2.01022-.01833.4977-.0275.74655-.08334.8495-.06146.1133-.10196.15234-.21745.20958-.10494.05202-.29024.05202-.66086.05202h-1.44047c-.56006 0-.84008 0-1.054-.10899-.18816-.09588-.34114-.24886-.43701-.43702-.10899-.21391-.10899-.49394-.10899-1.05399v-.53761c-.00044-.79538-.00076-1.38604.13634-1.89769.36987-1.38037 1.44806-2.45856 2.82843-2.82843z"/><path d="m11.2929 7.29289c.3905-.39052 1.0237-.39052 1.4142 0l4 4.00001c.3905.3905.3905 1.0237 0 1.4142l-4 4c-.3905.3905-1.0237.3905-1.4142 0s-.3905-1.0237 0-1.4142l2.2929-2.2929h-10.5858c-.55228 0-1-.4477-1-1s.44772-1 1-1h10.5858l-2.2929-2.29289c-.3905-.39053-.3905-1.02369 0-1.41422z"/></g></svg>

<svg width="24" height="24" viewBox="0 0 24 24" fill="none" xmlns="http://www.w3.org/2000/svg">
<path d="M7.9647 2.13627C8.47635 1.99917 9.06701 1.99949 9.86239 1.99993L16.2413 1.99997C17.0462 1.99996 17.7106 1.99995 18.2518 2.04417C18.8139 2.09009 19.3306 2.18866 19.8159 2.43595C20.5686 2.81944 21.1805 3.43136 21.564 4.18401C21.8113 4.66935 21.9099 5.18605 21.9558 5.74815C22 6.28934 22 6.95369 22 7.75865V16.2413C22 17.0463 22 17.7106 21.9558 18.2518C21.9099 18.8139 21.8113 19.3306 21.564 19.8159C21.1805 20.5686 20.5686 21.1805 19.8159 21.564C19.3306 21.8113 18.8139 21.9099 18.2518 21.9558C17.7106 22 17.0463 22 16.2413 22L9.8624 22C9.06701 22.0005 8.47635 22.0008 7.9647 21.8637C6.58433 21.4938 5.50614 20.4156 5.13627 19.0353C4.99917 18.5236 4.99949 17.9329 4.99993 17.1376V16.6C4.99993 16.0399 4.99993 15.7599 5.10892 15.546C5.20479 15.3578 5.35777 15.2049 5.54593 15.109C5.75985 15 6.03987 15 6.59993 15H8.0404C8.41102 15 8.59632 15 8.70126 15.052C8.81675 15.1093 8.85725 15.1483 8.91871 15.2616C8.97455 15.3646 8.98372 15.6134 9.00205 16.1111C9.02894 16.8414 9.32115 17.5638 9.87868 18.1213C11.0503 19.2929 12.9497 19.2929 14.1213 18.1213L18.1213 14.1213C18.409 13.8337 18.626 13.5022 18.7724 13.1484C18.9174 12.7986 18.9982 12.4156 19 12.0138L19 12L19 11.9902C18.9975 11.2257 18.7046 10.462 18.1213 9.87868L14.1213 5.87868C12.9497 4.70711 11.0503 4.70711 9.87868 5.87868C9.32115 6.4362 9.02894 7.15858 9.00205 7.8889C8.98372 8.3866 8.97455 8.63545 8.91871 8.7384C8.85725 8.8517 8.81675 8.89074 8.70126 8.94798C8.59632 9 8.41102 9 8.0404 9H6.59993C6.03987 9 5.75985 9 5.54593 8.89101C5.35777 8.79513 5.20479 8.64215 5.10892 8.45399C4.99993 8.24008 4.99993 7.96005 4.99993 7.4V6.86239C4.99949 6.06701 4.99917 5.47635 5.13627 4.9647C5.50614 3.58433 6.58433 2.50614 7.9647 2.13627Z" fill="#801ED7"/>
<path d="M11.2929 7.29289C11.6834 6.90237 12.3166 6.90237 12.7071 7.29289L16.7071 11.2929C17.0976 11.6834 17.0976 12.3166 16.7071 12.7071L12.7071 16.7071C12.3166 17.0976 11.6834 17.0976 11.2929 16.7071C10.9024 16.3166 10.9024 15.6834 11.2929 15.2929L13.5858 13H3C2.44772 13 2 12.5523 2 12C2 11.4477 2.44772 11 3 11H13.5858L11.2929 8.70711C10.9024 8.31658 10.9024 7.68342 11.2929 7.29289Z" fill="#801ED7"/>
</svg>
